images/flags/canada.svg

<svg width="28" height="20" viewBox="0 0 28 20" fill="none" xmlns="http://www.w3.org/2000/svg">
<rect x="0.25" y="0.25" width="27.5" height="19.5" rx="1.75" fill="white" stroke="#F5F5F5" stroke-width="0.5"/>
<mask id="mask0_481_8898" style="mask-type:alpha" maskUnits="userSpaceOnUse" x="0" y="0" width="28" height="20">
<rect x="0.25" y="0.25" width="27.5" height="19.5" rx="1.75" fill="white" stroke="white" stroke-width="0.5"/>
</mask>
<g mask="url(#mask0_481_8898)">
<rect x="20" width="8" height="20" fill="#FF3131"/>
<path fill-rule="evenodd" clip-rule="evenodd" d="M0 20H8V0H0V20Z" fill="#FF3131"/>
<path fill-rule="evenodd" clip-rule="evenodd" d="M16.1125 9.22157C15.8793 9.45477 15.4852 9.24389 15.5499 8.92049L16.0007 6.66671L14.6673 7.33337L14.0007 5.33337L13.334 7.33337L12.0007 6.66671L12.4514 8.92049C12.5161 9.24389 12.1221 9.45477 11.8888 9.22157L11.5697 8.90241C11.4395 8.77223 11.2285 8.77223 11.0983 8.90241L10.6673 9.33337L9.33398 8.66671L10.0007 10L9.56969 10.431C9.43951 10.5612 9.43951 10.7722 9.56969 10.9024L11.334 12.6667H13.334L13.6673 14.6667H14.334L14.6673 12.6667H16.6673L18.4316 10.9024C18.5618 10.7722 18.5618 10.5612 18.4316 10.431L18.0007 10L18.6673 8.66671L17.334 9.33337L16.903 8.90241C16.7728 8.77223 16.5618 8.77223 16.4316 8.90241L16.1125 9.22157Z" fill="#FF3131"/>
</g>
</svg>

<svg width="28" height="20" fill="none" xmlns="http://www.w3.org/2000/svg"><rect x=".25" y=".25" width="27.5" height="19.5" rx="1.75" fill="#fff" stroke="#F5F5F5" stroke-width=".5"/><mask id="mask0_481_8898" style="mask-type:alpha" maskUnits="userSpaceOnUse" x="0" y="0" width="28" height="20"><rect x=".25" y=".25" width="27.5" height="19.5" rx="1.75" fill="#fff" stroke="#fff" stroke-width=".5"/></mask><g mask="url(#mask0_481_8898)" fill="#FF3131"><path d="M20 0h8v20h-8z"/><path fill-rule="evenodd" clip-rule="evenodd" d="M0 20h8V0H0v20zM16.113 9.222a.333.333 0 01-.563-.302L16 6.667l-1.333.666-.666-2-.667 2-1.333-.666.45 2.253a.333.333 0 01-.562.302l-.32-.32a.333.333 0 00-.47 0l-.432.431-1.333-.666.667 1.333-.431.431a.333.333 0 000 .471l1.764 1.765h2l.333 2h.667l.333-2h2l1.765-1.765a.333.333 0 000-.471L18 10l.666-1.333-1.333.666-.431-.43a.333.333 0 00-.471 0l-.32.319z"/></g></svg>
